X:1
T:Title
%%score 1 2
L:1/8
Q:1/4=105
M:3/4
K:F
V:1 treble nm="Grand Piano, Soprano"
V:2 bass nm="Choir Pad, Come, Oh, Come, Anderson"
V:1
 [FA]3 [EG] [FA][GB] | [Ac]4 [Ac]2 | [Af]2 [ce]2 [Bd]2 | [Ac]4 [FA]2 | [EG]3 [_E^F] [=EG][FA] | %5
w: By~John~Robson~Sweney * * *|||||
 [GB]4 [Ac]2 | [ce]2 [Bd]2 [GB]2 | [Ac]4 [FA]2 | [FA]3 [EG] [FA][GB] | [Ac]4 [Ac]2 | %10
w: |||||
 [Af]2 [ce]2 [Bd]2 | [Ac]4 [Ac]2 | [Bd]4 [df]2 | [Ac]4 [FA]2 | [EG]2 [Bd]2 [Ec]2 | F4 [Ac]>[Ac] | %16
w: ||||||
 [Ac]2 [FA]2 [Ac]>[Ac] | [Ac]2 [FA]2 [Ac]2 | [Ac]2 [Bd][Ac] [GB][FA] | [Ec]2 [GB]2 [GB]>[GB] | %20
w: ||||
 [GB]2 [EG]2 [GB]>[GB] | [GB]2 [EG]2 [GB]2 | [ce]2 [Bd]2 [GB]2 | [FA]4 [Ac]>[Ac] | %24
w: ||||
 [Ac]2 [FA]2 [Ac]>[Ac] | [Ac]2 [FA]2 [Ac]2 | [Ac]2 [Bd][Ac] [GB][FA] | [Ec]2 [GB]2 [GB]>[GB] | %28
w: ||||
 [GB]2 [Ac]2 [Bd]>[Be] | [Af]2 [Ac]2 [FA]2 | [Ec]2 [EB]2 [EG]2 | F6- | F2 z2 z2 |] %33
w: |||||
V:2
 F,2 [A,C]2 [A,C]2 | F,2 [A,C]2 [A,C]2 | F,2 [A,C]2 [A,C]2 | F,2 [A,C]2 [A,C]2 | %4
 C,2 [G,C]2 [G,C]2 | C,2 [E,C]2 [E,C]2 | C,2 [E,C]2 [E,C]2 | F,2 [A,C]2 [A,C]2 | %8
 F,2 [A,C]2 [A,C]2 | F,2 [A,C]2 [A,C]2 | F,2 [A,C]2 [A,C]2 | F,2 [A,C]2 [A,C]2 | %12
 B,,2 [F,B,]2 [F,B,]2 | F,2 [A,C]2 [A,C]2 | C,2 C2 [C,B,]2 | [F,A,]4 [F,F]>[F,F] | %16
 [F,F]2 [F,C]2 [F,F]>[F,F] | [F,F]2 [F,C]2 [F,F]2 | [F,F]2 [F,F]2 [F,C]2 | %19
 [C,C]2 [C,C]2 [C,C]>[C,C] | [C,C]2 [C,C]2 [C,C]>[C,C] | [C,C]2 [C,C]2 [C,C]2 | %22
 [C,C]2 [D,C]2 [E,C]2 | [F,C]4 [F,F]>[F,F] | [F,F]2 [F,C]2 [F,F]>[F,F] | [F,F]2 [F,C]2 [F,F]2 | %26
 [F,F]2 [F,F]2 [F,C]2 | [C,C]2 [C,C]2 [C,C]>[C,C] | [C,C]2 [C,C]2 [C,C]>[C,C] | %29
 [F,C]2 [F,F]2 [F,C]2 | [C,C]2 [C,C]2 [C,B,]2 | [F,A,]6- | [F,A,]2 z2 z2 |] %33

